X:7482
T:the Winter's Tale
O:england
M:4/4
L:1/8
K:G
dBGB dBGB | efge d2B2 | ceAc BdGB | EAAG F2D2|\
dBGB dBGB | efge d2B2 | ceec BddB | cAGF G2G2::\
AFDF ABcA | BGdG g2d2 | cdec BcdB | EAAG F2D2 |\
AFDF ABcA | BGdB g2d2 | ^cdef geag | ege^c d2d2:|
